!!!COM:	Bach, Johann Sebastian
!!!CDT:	1685/02/21/-1750/07/28/
!!!OTL@@DE:	Jesu, der du meine Seele
!!!SCT:	BWV 352
!!!PC#:	37
!!!AGN:	chorale
**harm	**kern	**kern	**kern	**kern
*	*ICvox	*ICvox	*ICvox	*ICvox
*	*Ibass	*Itenor	*Ialto	*Isoprn
*	*I"Bass	*I"Tenor	*I"Alto	*I"Soprano
*>[A,A,B]	*>[A,A,B]	*>[A,A,B]	*>[A,A,B]	*>[A,A,B]
*>norep[A,B]	*>norep[A,B]	*>norep[A,B]	*>norep[A,B]	*>norep[A,B]
*>A	*>A	*>A	*>A	*>A
*	*	*oclefC4	*oclefC3	*oclefC1
*	*clefF4	*clefGv2	*clefG2	*clefG2
*k[]	*k[]	*k[]	*k[]	*k[]
*a:	*a:	*a:	*a:	*a:
*M4/4	*M4/4	*M4/4	*M4/4	*M4/4
*met(c)	*met(c)	*met(c)	*met(c)	*met(c)
*MM100	*MM100	*MM100	*MM100	*MM100
=1-	=1-	=1-	=1-	=1-
i	4AA	4c	4a	4ee
i	4A	4A	4cc	4ee
V6	4G#	4e	4b	4b
vi%7	4F#	4e	4a	4cc
=2	=2	=2	=2	=2
IV6	8F#L	8dL	8aL	8ddL
viio	8G#J	8BJ	8bJ	8ddJ
i	4A	4c	4a	4cc
V	4E	4e	4g#	4b
i;	4AA;	4c;	4e;	4a;
=3	=3	=3	=3	=3
i	4A	4c	4e	4cc
VI	4FnX	4A	4a	4cc
ii%65	8DL	8AL	8fL	8bL
V	8EJ	8G#J	8eJ	8bJ
iv6	4F	4A	4d	4a
=4	=4	=4	=4	=4
viio65	4BB	4d	4f	4g#
i6	8CL	8cL	8eL	8aL
viio64/V	8AAJ	8d#J	8f#J	8aJ
V;	2E;	2e;	2g#;	2b;
=5:|!	=5:|!	=5:|!	=5:|!	=5:|!
*>B	*>B	*>B	*>B	*>B
V	4E	4e	4g#	4b
i	4A	4e	4a	4cc
IV6	4F#	4d	4a	4dd
G:I	4G	4d	4g	4b
=6	=6	=6	=6	=6
IV6	4E	4c	4g	4cc
ii65	4C	4e	4g	4a
V7	4D	4c	4f#	4a
I;	4GG;	4B;	4d;	4g;
=7	=7	=7	=7	=7
C:vi	4A	4e	4c	4cc
V	8GL	8BL	8gL	8ddL
V2	8FJ	8BJ	8gJ	8ddJ
I6	4E	4c	4g	4ee
IV	4F	4A	4a	4cc
=8	=8	=8	=8	=8
ii	8DL	8dL	8aL	8ffL
viio6	8DJ	8dJ	8bJ	8ffJ
I6	4E	4G	4cc	4ee
V7	4G	4f	4b	4dd
I;	4C;	4e;	4g;	4cc;
=9	=9	=9	=9	=9
V	4G	4d	4g	4b
IV6	4A	4c	4f	4cc
V65	4B	4f	4d	4dd
I	4c	4e	4g	4ee
=10	=10	=10	=10	=10
viio7/vi	4G#	4f	4b	4dd
a:i	4A	4e	4a	4cc
V;	2E;	2e;	2g#;	2b;
=11	=11	=11	=11	=11
i6	4C	4e	4a	4a
V65	4GG#	4d	4e	4b
i	8AAL	8cL	8eL	8ccL
iio6	8DJ	8dJ	8fJ	8bJ
V7	8EL	8G#XL	8eL	8ddL
iv6	8FJ	8AJ	8dJ	8ddJ
=12	=12	=12	=12	=12
V(64)	4E	4A	4e	4cc
V7	4E	4G#	4d	4b
I;	2AA;	2E;	2c#;	2a;
==	==	==	==	==
*-	*-	*-	*-	*-
!!!YOR1: 371 vierstimmige Choralges&auml;nge von Johann Sebastian Bach, 
!!!YOR2: 4th ed. by Alfred D&ouml;rffel (Leipzig: Breitkopf und H&auml;rtel, 
!!!YOR2: c.1875). 178 pp. Plate "V.A.10".  reprint: J.S. Bach, 371 Four-Part 
!!!YOR4: Chorales (New York: Associated Music Publishers, Inc., c.1940).
!!!SMS: B&H, 4th ed, Alfred D&ouml;rffel, c.1875, plate V.A.10
!!!EED:  Craig Stuart Sapp
!!!EEV:  2009/05/22
